static/assets/images/exchanges/sushi.svg

<svg width="279" height="256" viewBox="0 0 279 256" fill="none" xmlns="http://www.w3.org/2000/svg">
<path d="M57.569 14.7575L274.302 163.023L220.702 242.41L3.96828 92.9765L57.569 14.7575Z" fill="url(#paint0_linear_9884_966)"/>
<path d="M220.702 241.242C202.058 268.094 139.135 257.587 79.7085 215.559C20.2816 173.53 -13.5102 119.828 5.13355 91.8091C23.7773 64.9578 86.6999 75.4649 146.127 117.493C205.554 159.521 238.18 214.391 220.702 241.242Z" fill="url(#paint1_linear_9884_966)"/>
<path d="M274.302 163.023C255.659 189.875 192.736 179.368 133.309 137.34C72.7172 96.4789 40.0905 41.6088 57.569 14.7575C76.2127 -12.0938 139.136 -1.58669 198.562 40.4414C259.155 80.1347 291.781 136.172 274.302 163.023Z" fill="url(#paint2_linear_9884_966)"/>
<path fill-rule="evenodd" clip-rule="evenodd" d="M266.146 158.354C249.833 181.703 192.736 170.028 137.97 131.502C82.039 92.9766 49.4125 43.9438 65.7257 20.5948C82.039 -2.75414 139.135 8.92033 193.901 47.4461C248.667 85.9719 281.294 135.005 266.146 158.354ZM214.876 123.33C206.719 135.005 178.753 129.167 150.788 110.488C123.987 91.8091 107.674 67.2927 115.831 55.6183C123.987 43.9438 151.953 49.781 179.919 68.4602C206.719 87.1394 223.032 111.656 214.876 123.33Z" fill="white"/>
<path d="M52.908 41.6088C52.908 40.4414 51.7428 39.274 50.5775 40.4414C49.4123 41.6089 48.2471 41.6089 48.2471 42.7763C49.4123 46.2786 50.5775 48.6135 50.5775 50.9484C50.5775 52.1159 51.7428 53.2833 52.908 52.1159C54.0732 52.1159 55.2385 50.9484 54.0732 49.781C54.0732 47.4461 54.0732 45.1112 52.908 41.6088Z" fill="white"/>
<path d="M58.7345 60.288C58.7345 59.1205 57.5693 57.9531 56.4041 59.1205C55.2388 60.288 55.2388 60.288 55.2388 61.4554C68.0564 90.6416 94.8567 122.163 129.814 145.512C130.979 146.679 132.144 145.512 133.309 145.512C134.475 144.344 133.309 143.177 133.309 142.009C97.1872 118.66 71.5521 88.3067 58.7345 60.288Z" fill="white"/>
<path d="M199.727 174.698C198.562 174.698 197.397 174.698 197.397 175.865C197.397 177.033 197.397 178.2 198.562 178.2C202.058 179.368 206.719 180.535 210.215 181.703C211.38 181.703 212.545 181.703 212.545 180.535C212.545 179.368 212.545 178.2 211.38 178.2C207.884 177.033 203.223 175.865 199.727 174.698Z" fill="white"/>
<path d="M220.702 179.368C219.537 179.368 218.371 180.535 218.371 181.703C218.371 182.87 219.537 184.038 220.702 184.038C230.024 185.205 240.511 186.372 248.668 185.205C249.833 185.205 250.998 184.038 250.998 182.87C250.998 181.703 249.833 180.535 248.668 180.535C239.346 181.703 230.024 180.535 220.702 179.368Z" fill="white"/>
<defs>
<linearGradient id="paint0_linear_9884_966" x1="99.1436" y1="-23.7056" x2="151.226" y2="140.123" gradientUnits="userSpaceOnUse">
<stop stop-color="#03B8FF"/>
<stop offset="1" stop-color="#FA52A0"/>
</linearGradient>
<linearGradient id="paint1_linear_9884_966" x1="65.8557" y1="-11.4459" x2="113.28" y2="144.344" gradientUnits="userSpaceOnUse">
<stop stop-color="#03B8FF"/>
<stop offset="1" stop-color="#FA52A0"/>
</linearGradient>
<linearGradient id="paint2_linear_9884_966" x1="101.859" y1="-23.9777" x2="172.345" y2="183.011" gradientUnits="userSpaceOnUse">
<stop stop-color="#03B8FF"/>
<stop offset="1" stop-color="#FA52A0"/>
</linearGradient>
</defs>
</svg>

<svg xmlns="http://www.w3.org/2000/svg" fill="none" viewBox="0 0 279 256"><path fill="url(#paint0_linear_9884_966)" d="m57.569 14.758 216.733 148.265-53.6 79.387L3.968 92.977z"/><path fill="url(#paint1_linear_9884_966)" d="M220.702 241.242c-18.644 26.852-81.567 16.345-140.993-25.683-59.427-42.029-93.22-95.731-74.575-123.75C23.777 64.958 86.7 75.465 146.127 117.493s92.053 96.898 74.575 123.749"/><path fill="url(#paint2_linear_9884_966)" d="M274.302 163.023c-18.643 26.852-81.566 16.345-140.993-25.683-60.592-40.861-93.218-95.731-75.74-122.583 18.644-26.85 81.567-16.344 140.993 25.684 60.593 39.694 93.219 95.731 75.74 122.582"/><path fill="#fff" fill-rule="evenodd" d="M266.146 158.354c-16.313 23.349-73.41 11.674-128.176-26.852C82.039 92.977 49.413 43.944 65.726 20.595 82.039-2.755 139.135 8.92 193.9 47.446s87.393 87.559 72.245 110.908m-51.27-35.024c-8.157 11.675-36.123 5.837-64.088-12.842-26.801-18.679-43.114-43.195-34.957-54.87s36.122-5.837 64.088 12.842c26.8 18.68 43.113 43.196 34.957 54.87" clip-rule="evenodd"/><path fill="#fff" d="M52.908 41.609c0-1.168-1.165-2.335-2.33-1.168s-2.33 1.168-2.33 2.335c1.164 3.503 2.33 5.837 2.33 8.172 0 1.168 1.165 2.335 2.33 1.168 1.165 0 2.33-1.168 1.165-2.335 0-2.335 0-4.67-1.165-8.172m5.827 18.679c0-1.167-1.166-2.335-2.33-1.167-1.166 1.167-1.166 1.167-1.166 2.334 12.817 29.187 39.618 60.708 74.575 84.057 1.165 1.167 2.33 0 3.495 0 1.166-1.168 0-2.335 0-3.503-36.122-23.349-61.757-53.702-74.574-81.721m140.992 114.41c-1.165 0-2.33 0-2.33 1.167s0 2.335 1.165 2.335c3.496 1.168 8.157 2.335 11.653 3.503 1.165 0 2.33 0 2.33-1.168s0-2.335-1.165-2.335c-3.496-1.167-8.157-2.335-11.653-3.502m20.975 4.67c-1.165 0-2.331 1.167-2.331 2.335s1.166 2.335 2.331 2.335c9.322 1.167 19.809 2.334 27.966 1.167 1.165 0 2.33-1.167 2.33-2.335s-1.165-2.335-2.33-2.335c-9.322 1.168-18.644 0-27.966-1.167"/><defs><linearGradient id="paint0_linear_9884_966" x1="99.144" x2="151.226" y1="-23.706" y2="140.123" gradientUnits="userSpaceOnUse"><stop stop-color="#03B8FF"/><stop offset="1" stop-color="#FA52A0"/></linearGradient><linearGradient id="paint1_linear_9884_966" x1="65.856" x2="113.28" y1="-11.446" y2="144.344" gradientUnits="userSpaceOnUse"><stop stop-color="#03B8FF"/><stop offset="1" stop-color="#FA52A0"/></linearGradient><linearGradient id="paint2_linear_9884_966" x1="101.859" x2="172.345" y1="-23.978" y2="183.011" gradientUnits="userSpaceOnUse"><stop stop-color="#03B8FF"/><stop offset="1" stop-color="#FA52A0"/></linearGradient></defs></svg>
